X:28
T:Miss Brown's Fancy
T:Maggie Brown's Favourite
S:Kilkenny Tavern sessions, London
N:Unrelated to the slip jig with the same name; there
N:is a single jig in O'Neill called 'Miss Blair's Fancy'
N:which is the same tune.
N:First published in 'Beauties of Niel Gow', 1819, as
N:'Miss Margaret Brown. Now Lady Camden', and possibly
N:composed by Nathaniel Gow.
N:The attribution to Carolan by O'Neill (1850, No. 692
N:as 'Planxty Browne') is suspect.
N:Also published in Cole, 1001 Fiddle Tunes, 1940, No. 40;
N:and in Kerr's Merry Melodies, Vol. 2, No. 304.
N:It appears in the Notts Music Database as 'Maggie's
N:Favourite'.
Z:ATB
R:set dance
M:6/8
L:1/8
K:G
dBG GAB|E2E E2c|AFD DEF|G2B G2e|
dBG Bcd|E2E E2c|AFD DEF|[1 GBA G3:|][2 GBA Gga|]
bgb afd|efg gfe|dBg dBG|AFD Dga|
bgb afd|efg gfe|faf gc^c|d3 de=f|
ece dBd|cAc BdB|Ace cBG|FAF DEF|
GAB EFG|ABc def|gdB cAF|G3 G2e|]
